src/img/logo.svg

<?xml version="1.0" encoding="iso-8859-1"?>
<!-- Generator: Adobe Illustrator 19.0.0, SVG Export Plug-In . SVG Version: 6.00 Build 0)  -->
<svg version="1.1" id="Capa_1" xmlns="http://www.w3.org/2000/svg" xmlns:xlink="http://www.w3.org/1999/xlink" x="0px" y="0px"
	 viewBox="0 0 480.07 480.07" style="enable-background:new 0 0 480.07 480.07;" xml:space="preserve">
<g>
	<g>
		<path d="M184.034,328.032h-32v-32c0-4.418-3.582-8-8-8h-32c-4.418,0-8,3.582-8,8v32h-32c-4.418,0-8,3.582-8,8v32
			c0,4.418,3.582,8,8,8h32v32c0,4.418,3.582,8,8,8h32c4.418,0,8-3.582,8-8v-32h32c4.418,0,8-3.582,8-8v-32
			C192.034,331.614,188.452,328.032,184.034,328.032z M176.034,360.032h-32c-4.418,0-8,3.582-8,8v32h-16v-32c0-4.418-3.582-8-8-8
			h-32v-16h32c4.418,0,8-3.582,8-8v-32h16v32c0,4.418,3.582,8,8,8h32V360.032z"/>
	</g>
</g>
<g>
	<g>
		<path d="M479.234,337.416c-6.136-55.128-57.912-106.704-113.088-112.584c-4.686-0.517-9.397-0.784-14.112-0.8h-88v-32h-16v-16
			c0-17.673-14.327-32-32-32h-40c-8.837,0-16-7.163-16-16s7.163-16,16-16h128c17.673,0,32-14.327,32-32s-14.327-32-32-32h-40
			c-8.837,0-16-7.163-16-16v-32h-16v32c0,17.673,14.327,32,32,32h40c8.837,0,16,7.163,16,16s-7.163,16-16,16h-128
			c-17.673,0-32,14.327-32,32s14.327,32,32,32h40c8.837,0,16,7.163,16,16v16h-16v32h-88c-4.72,0.011-9.437,0.278-14.128,0.8
			c-55.2,5.92-106.944,57.496-113.064,112.624C-7.195,407.69,43.225,471.142,113.46,479.179c28.6,3.273,57.468-3.191,81.942-18.346
			c10.537-6.898,22.581-11.154,35.112-12.408c6.19-0.489,12.407-0.511,18.6-0.064c12.729,1.231,24.967,5.536,35.664,12.544
			c60.135,37.164,139.012,18.543,176.176-41.593C476.076,394.843,482.516,365.993,479.234,337.416z M232.034,208.032h16v16h-16
			V208.032z M435.514,426.704c-36.169,40.456-96.148,49.138-142.304,20.6c-12.889-8.393-27.634-13.509-42.952-14.904
			c-3.376-0.245-6.784-0.368-10.224-0.368c-3.64,0-7.2,0.152-10.784,0.432c-15.085,1.445-29.597,6.511-42.304,14.768
			c-52.602,32.545-121.627,16.287-154.173-36.315c-13.249-21.414-18.895-46.668-16.027-71.685
			c5.264-47.376,51.456-93.392,98.88-98.488c4.12-0.461,8.262-0.698,12.408-0.712h224c4.145,0.003,8.287,0.224,12.408,0.664
			c47.416,5.096,93.6,51.112,98.88,98.488C467.094,371.001,456.959,402.899,435.514,426.704z"/>
	</g>
</g>
<g>
	<g>
		<path d="M352.034,272.032c-17.673,0-32,14.327-32,32c0,17.673,14.327,32,32,32c17.673,0,32-14.327,32-32
			C384.034,286.359,369.707,272.032,352.034,272.032z M352.034,320.032c-8.837,0-16-7.163-16-16s7.163-16,16-16s16,7.163,16,16
			S360.87,320.032,352.034,320.032z"/>
	</g>
</g>
<g>
	<g>
		<path d="M352.034,368.032c-17.673,0-32,14.327-32,32c0,17.673,14.327,32,32,32c17.673,0,32-14.327,32-32
			C384.034,382.359,369.707,368.032,352.034,368.032z M352.034,416.032c-8.837,0-16-7.163-16-16s7.163-16,16-16s16,7.163,16,16
			S360.87,416.032,352.034,416.032z"/>
	</g>
</g>
<g>
	<g>
		<path d="M296.034,320.032c-17.673,0-32,14.327-32,32c0,17.673,14.327,32,32,32c17.673,0,32-14.327,32-32
			C328.034,334.359,313.707,320.032,296.034,320.032z M296.034,368.032c-8.837,0-16-7.163-16-16s7.163-16,16-16s16,7.163,16,16
			S304.87,368.032,296.034,368.032z"/>
	</g>
</g>
<g>
	<g>
		<path d="M408.034,320.032c-17.673,0-32,14.327-32,32c0,17.673,14.327,32,32,32c17.673,0,32-14.327,32-32
			C440.034,334.359,425.707,320.032,408.034,320.032z M408.034,368.032c-8.837,0-16-7.163-16-16s7.163-16,16-16s16,7.163,16,16
			S416.87,368.032,408.034,368.032z"/>
	</g>
</g>
<g>
</g>
<g>
</g>
<g>
</g>
<g>
</g>
<g>
</g>
<g>
</g>
<g>
</g>
<g>
</g>
<g>
</g>
<g>
</g>
<g>
</g>
<g>
</g>
<g>
</g>
<g>
</g>
<g>
</g>
</svg>

<svg width="481" height="481" viewBox="0 0 481 481" fill="none" xmlns="http://www.w3.org/2000/svg">
<g clip-path="url(#clip0)">
<path d="M184.034 328.032H152.034V296.032C152.034 291.614 148.452 288.032 144.034 288.032H112.034C107.616 288.032 104.034 291.614 104.034 296.032V328.032H72.034C67.616 328.032 64.034 331.614 64.034 336.032V368.032C64.034 372.45 67.616 376.032 72.034 376.032H104.034V408.032C104.034 412.45 107.616 416.032 112.034 416.032H144.034C148.452 416.032 152.034 412.45 152.034 408.032V376.032H184.034C188.452 376.032 192.034 372.45 192.034 368.032V336.032C192.034 331.614 188.452 328.032 184.034 328.032ZM176.034 360.032H144.034C139.616 360.032 136.034 363.614 136.034 368.032V400.032H120.034V368.032C120.034 363.614 116.452 360.032 112.034 360.032H80.034V344.032H112.034C116.452 344.032 120.034 340.45 120.034 336.032V304.032H136.034V336.032C136.034 340.45 139.616 344.032 144.034 344.032H176.034V360.032Z" fill="#999999"/>
<path d="M479.234 337.416C473.098 282.288 421.322 230.712 366.146 224.832C361.46 224.315 356.749 224.048 352.034 224.032H264.034V192.032H248.034V176.032C248.034 158.359 233.707 144.032 216.034 144.032H176.034C167.197 144.032 160.034 136.869 160.034 128.032C160.034 119.195 167.197 112.032 176.034 112.032H304.034C321.707 112.032 336.034 97.705 336.034 80.032C336.034 62.359 321.707 48.032 304.034 48.032H264.034C255.197 48.032 248.034 40.869 248.034 32.032V0.0319977H232.034V32.032C232.034 49.705 246.361 64.032 264.034 64.032H304.034C312.871 64.032 320.034 71.195 320.034 80.032C320.034 88.869 312.871 96.032 304.034 96.032H176.034C158.361 96.032 144.034 110.359 144.034 128.032C144.034 145.705 158.361 160.032 176.034 160.032H216.034C224.871 160.032 232.034 167.195 232.034 176.032V192.032H216.034V224.032H128.034C123.314 224.043 118.597 224.31 113.906 224.832C58.706 230.752 6.962 282.328 0.842005 337.456C-7.19499 407.69 43.225 471.142 113.46 479.179C142.06 482.452 170.928 475.988 195.402 460.833C205.939 453.935 217.983 449.679 230.514 448.425C236.704 447.936 242.921 447.914 249.114 448.361C261.843 449.592 274.081 453.897 284.778 460.905C344.913 498.069 423.79 479.448 460.954 419.312C476.076 394.843 482.516 365.993 479.234 337.416ZM232.034 208.032H248.034V224.032H232.034V208.032ZM435.514 426.704C399.345 467.16 339.366 475.842 293.21 447.304C280.321 438.911 265.576 433.795 250.258 432.4C246.882 432.155 243.474 432.032 240.034 432.032C236.394 432.032 232.834 432.184 229.25 432.464C214.165 433.909 199.653 438.975 186.946 447.232C134.344 479.777 65.319 463.519 32.773 410.917C19.524 389.503 13.878 364.249 16.746 339.232C22.01 291.856 68.202 245.84 115.626 240.744C119.746 240.283 123.888 240.046 128.034 240.032H352.034C356.179 240.035 360.321 240.256 364.442 240.696C411.858 245.792 458.042 291.808 463.322 339.184C467.094 371.001 456.959 402.899 435.514 426.704Z" fill="#999999"/>
<path d="M352.034 272.032C334.361 272.032 320.034 286.359 320.034 304.032C320.034 321.705 334.361 336.032 352.034 336.032C369.707 336.032 384.034 321.705 384.034 304.032C384.034 286.359 369.707 272.032 352.034 272.032ZM352.034 320.032C343.197 320.032 336.034 312.869 336.034 304.032C336.034 295.195 343.197 288.032 352.034 288.032C360.871 288.032 368.034 295.195 368.034 304.032C368.034 312.869 360.87 320.032 352.034 320.032Z" fill="#999999"/>
<path d="M352.034 368.032C334.361 368.032 320.034 382.359 320.034 400.032C320.034 417.705 334.361 432.032 352.034 432.032C369.707 432.032 384.034 417.705 384.034 400.032C384.034 382.359 369.707 368.032 352.034 368.032ZM352.034 416.032C343.197 416.032 336.034 408.869 336.034 400.032C336.034 391.195 343.197 384.032 352.034 384.032C360.871 384.032 368.034 391.195 368.034 400.032C368.034 408.869 360.87 416.032 352.034 416.032Z" fill="#999999"/>
<path d="M296.034 320.032C278.361 320.032 264.034 334.359 264.034 352.032C264.034 369.705 278.361 384.032 296.034 384.032C313.707 384.032 328.034 369.705 328.034 352.032C328.034 334.359 313.707 320.032 296.034 320.032ZM296.034 368.032C287.197 368.032 280.034 360.869 280.034 352.032C280.034 343.195 287.197 336.032 296.034 336.032C304.871 336.032 312.034 343.195 312.034 352.032C312.034 360.869 304.87 368.032 296.034 368.032Z" fill="#999999"/>
<path d="M408.034 320.032C390.361 320.032 376.034 334.359 376.034 352.032C376.034 369.705 390.361 384.032 408.034 384.032C425.707 384.032 440.034 369.705 440.034 352.032C440.034 334.359 425.707 320.032 408.034 320.032ZM408.034 368.032C399.197 368.032 392.034 360.869 392.034 352.032C392.034 343.195 399.197 336.032 408.034 336.032C416.871 336.032 424.034 343.195 424.034 352.032C424.034 360.869 416.87 368.032 408.034 368.032Z" fill="#999999"/>
</g>
<defs>
<clipPath id="clip0">
<rect width="480.07" height="480.07" fill="white"/>
</clipPath>
</defs>
</svg>
